X:185
T:Welcome from the Havanna
M: C|
L:1/8
N:Play AABA
B:Thompson's Compleat Collection of 200 Favourite Country Dances, vol. 3 (London, 1773)
Z:Transcribed and edited by Flynn Titford-Mock, 2007
Z:abc's:AK/Fiddler's Companion
K:D
F/G/ | A>BA>F ED (E/F/G) | A>BAF dBAF | A>BA>F ED Ea/f/ | edef d3 :|
f/g/ | agfe dcBA | B>cdF EFEF | GABc defe | dBAF D3 f/g/ |
af de/f/ ge cd/e/ | fd Bc/d/ ecAc | defe defe | dBAF E3 |]

